X: 30408
T: Old Station House, The
R: jig
M: 6/8
K: Dmajor
D|:DFA Bcd|B2A AFE|DFA AFD|F2E EDB,|
DFA Bcd|f2e edA|BdB AFE|FDD D2:|
e|:f2d dBA|B2A Bcd|f2e ede|faa f2e|fdd Add|
f2d BAF|AdB AFE|1 FDD DFA:|2 FDD D2A,||

